polaris-icons/icons/new-icons/AttachmentMajor.svg

<svg width="20" height="20" viewBox="0 0 20 20" fill="none" xmlns="http://www.w3.org/2000/svg">
<path fill-rule="evenodd" clip-rule="evenodd" d="M4.84316 9.85396C3.37869 11.3184 3.37869 13.6928 4.84316 15.1573L4.98961 15.3037C6.37319 16.6873 8.61643 16.6873 10 15.3037C10.2929 15.0108 10.2929 14.5359 10 14.2431C9.70712 13.9502 9.23225 13.9502 8.93935 14.2431C8.14155 15.0409 6.84807 15.0409 6.05027 14.2431L5.90382 14.0966C5.02514 13.2179 5.02514 11.7933 5.90382 10.9146L10.9188 5.89962C11.795 5.02348 13.2155 5.02348 14.0916 5.89962C14.9678 6.77576 14.9678 8.19627 14.0916 9.07241L11.8058 11.3583C11.4868 11.6772 10.9697 11.6772 10.6507 11.3583C10.3318 11.0393 10.3318 10.5222 10.6507 10.2032L12.9017 7.95231C13.1946 7.65942 13.1946 7.18455 12.9017 6.89165C12.6088 6.59876 12.1339 6.59876 11.841 6.89165L9.59009 9.14257C8.68535 10.0473 8.68535 11.5142 9.59009 12.4189C10.4948 13.3236 11.9617 13.3236 12.8664 12.4189L15.1523 10.1331C16.6142 8.67114 16.6142 6.30089 15.1523 4.83896C13.6903 3.37703 11.3201 3.37703 9.85816 4.83896L4.84316 9.85396Z" fill="#4A4A4A"/>
</svg>

<svg viewBox="0 0 20 20" xmlns="http://www.w3.org/2000/svg"><path fill-rule="evenodd" d="M4.843 9.854a3.75 3.75 0 0 0 0 5.303l.147.147a3.543 3.543 0 0 0 5.01 0 .75.75 0 1 0-1.06-1.06 2.043 2.043 0 0 1-2.89 0l-.146-.147a2.25 2.25 0 0 1 0-3.182l5.015-5.015a2.244 2.244 0 0 1 3.173 3.172l-2.286 2.286a.817.817 0 0 1-1.155-1.155l2.25-2.25a.75.75 0 1 0-1.06-1.061l-2.25 2.25a2.317 2.317 0 1 0 3.275 3.277l2.286-2.286a3.744 3.744 0 0 0-5.294-5.294l-5.015 5.015Z" fill="#5C5F62"/></svg>
